X:355
T: Humors of Plumbridge
C: BB
R: jig
Q: 1/8=320
M: 6/8
L: 1/8
K: G
A | "G"BGB dcB | "Am"cAG "Em"FGE | "G"DGB DGB | "Em"gfe "D7"d2 c |
"G"BGB dcB | "Am7"cAG FGA | "G"BdB "Am"cAF | "D"AGF "G"G2 :|
e | "Em"gfe "D"fed | "C"efe "Em7"ede | "G"gBB dcB | "Am"cAA ABc |
"G"BGB "C"cBc | "D"d^cd "Em"efg | "G"dBd "Am"cAF | "D"AGF "G"G2 :|
%%%%%%%%%%%%%%%%%%%%%%%%%%%%%%%%%%%%%%%%%%%
